X:0539
T:New Stepney March.
T:For the Violin
M:6/8
L:1/8
Q:3/8=92 "Moderato"
I: :: ::
Z:Jack Campin * www.campin.me.uk * 2009
K:G
B/c/|dBG  g2e|f2d e2c|dBG dBG|FAA A2
B/c/|dBG  g2e|f2d e2c|dBc dBe|BcA G2::
D/C/|B,2D G2B|FAc GBd|c2e dBG|FAA A2
D/C/|B,2D G2B|FAc GBc|dBc dBg|BcA G2:|
<end>
<start>
